X:1
T:Title
%%score { 1 | 2 }
L:1/8
Q:1/4=106
M:4/4
K:G
V:1 treble nm="Grand Piano"
V:2 treble 
V:1
 D2 G2 G2 B2 | B2 B2 [FA]2 F2 | D2 F>G [FA]2 [GB]>[Gc] | B6 z2 | D2 G2 G2 B2 | B2 B2 [FA]2 F2 | %6
w: D.~F.~M. * * *||||||
 D2 F>G [FA]2 [GB]>[FA] | G6 z2 | [Ec]2 [Ec]>[Ec] [Ec]2 [Ec]2 | B2 B>B B2 B2 | %10
w: ||||
 [FA]2 [FA]>[FA] [GB]2 [G^c]>[Gc] | [Fd]6 z2 | D2 G2 G2 B2 | B2 B2 [FA]2 F2 | %14
w: ||||
 D2 F>G [CFA]2 [DGB]>[CFA] | [B,G]6 z2 |] %16
w: ||
V:2
 [G,B,]2 [G,B,D]2 [G,B,D]2 [G,DG]2 | [G,DG]2 [G,DG]2[K:bass] [D,D]2 [D,A,D]2 | %2
 [D,B,]2 [D,A,D]>[D,B,D] [D,D]2 [D,D]>[D,D] | [G,DG]6 z2 | [G,B,]2 [G,B,D]2 [G,B,D]2 [G,DG]2 | %5
 [G,DG]2 [G,DG]2[K:bass] [D,D]2 [D,A,D]2 | [D,B,]2 [D,A,D]>[D,B,D] [D,D]2 [D,D]>[D,C] | %7
 [G,B,]6 z2 | [C,G,]2 [C,G,]>[C,G,] [C,G,]2 [C,G,]2 | [G,D]2 [G,D]>[G,D] [G,D]2 [G,D]2 | %10
 [D,D]2 [D,D]>[D,D] [G,D]2 [E,A,]>[E,A,] | [D,A,]6 z2 | [G,B,]2 [G,B,D]2 [G,B,D]2 [G,DG]2 | %13
 [G,DG]2 [G,DG]2[K:bass] [D,D]2 [D,A,D]2 | [D,B,]2 [D,A,D]>[D,B,D] D,2 D,>D, | G,6 z2 |] %16

